X:3
T:MacGregor of Ruaro
M:3/4
L:1/8
Q:1/4=84
S:Henderson's Tutor for the Bagpipe and Collection of Pipe Music
K:AMix
%%MIDI drone 70 45 33 70 70
%%MIDI droneon
{/g}A3/2{/d}B1/2 | {/g}e3/2{/A}e1/2 {/g}e3/2f1/2 {/g}d3/2f1/2 | {/g}f1/2e3/2 A2 {/g}A3/2{/d}B1/2 | 
{/g}e2 {/A}ef {/a}ge1/2{/g}e1/2 | d2 {/e}G2 {/dc}dB |!
{/Gdc}d2 {/g}e3/2d1/2 {/gBd}B{/e}A | {/eAd}A1/2{/e}G3/2 {/g}B1/2{/G}B1/2d {/g}e3/2d1/2 | 
{/ed}B2 {/gAd}A1/2{/e}G3/2 {/g}A2 | {/GdG}B2 {/G}A2 :|!
{/g}A3/2{/d}B1/2 | {/g}e2 a2 ga | e2 {/g}A2 {/g}A3/2{/GdG}B1/2 | {/g}e2 a2 g/f/{/g}e/d/ |
{/gf}g2 {/a}G2 {/dc}d{/e}B |!
{/Gdc}d2 {/g}e3/2d1/2 {/gBd}B{/G}A | {/eAd}A1/2{/d}G3/2 {/g}B1/2{/G}B1/2d {/g}e3/2d1/2 | 
{/ed}B2 {/gAd}A1/2{/e}G3/2 {/g}A2 | {/GdG}B2 {/G}A2 {/g}A3/2B1/2 |!
{/g}e2 a2 ga | e2 {/g}A2 {/g}A3/2{/GdG}B1/2 | {/g}e2 a2 g/f/{/g}e/d/ | 
{/gf}g2 {/a}G2 {/g}ed1/2{/e}B1/2 |!
{/Gdc}d2 {/g}e/f/g {/Bd}B{/e}A | {/gAd}A/{/e}G3/2 {/g}B/{/G}B/d {/g}e3/2d/ | 
{/ed}B2 {/gAe}A/{/e}G3/2 {/g}A2 | {/GdG}B2 {/G}A2 |]

